X: 42980
T: Willie Murray's
R: reel
M: 4/4
K: Bminor
d2Bc dBBc|d2 Bc dBfB|d2Bc dBBd|cAAB cdec|
d2Bc dBBc|dBBc dBfB|d2Bc dBBd|cAAB cdec||
Aaga fd a2|fdde fgaf|Aaga fd a2|cAAB cdec|
Aaga fd a2|fdde fgaf|g2 af gefd|cAAB cdef|
g2ef geef|geef geae|g2ef geeg|fdde fgaf|
g2ef geef|geef geae|g2ef geeg|fdde fgaf||
faea ge g2|aeef gefd|cdea ge g2 fdde fgaf|
faea ge g2|aeef gefd|afgf ec d2|cAAB cded||

